X:49
T:Oddfellows in Plainville, The
C:Ed Yother
C:c.2005
C:http://edyother.com
M:6/8
R:jig
K:G
BAB dBA | GAG FED | B,2B, DB,D | EGF EDB, |
BAB dBA | GAG FED | B,2B, DB,D | EGF E2E :|
|: d2d dcB | GBd gfe | d2d dcB | GAB cBA |
BAB dBA | GAG FED | B,2B, DB,D | EGF E3 :|

